X:208
T:Mutt's favourite
R:Reel
O:Cape Breton
C:Jerry Holland
S:Jerry Holland's collection of fiddle tunes
B:Jerry Holland's collection of fiddle tunes
Z:Transcription, chords:Mike Long
M:C|
L:1/8
K:G
"Am"EAAc B2 Ac|BAAg feea|EAAc B2 Ac|"G"BGGA BcdD|\
"Am"EAAc "tr"B2 Ac|BAAg fe(ef)|
"C/Em"gfgd {d}e2 eg|"G"BGBc dBGB:|\
|:"Am"EA A/A/A fA A/A/A|gA A/A/A aA ~A2|\
EAfA gAaA|"G"fgdg BGGD:|
